X:1
T:[ID 5-58]
T:[ID 5-58]
T:Bezeichnung standardisiert: Overb\"orscher Tanz; Overboerscher Tantz In dieser Quelle auch als: Overb\"oerscher Tantz
T:Urheber unbekannt Datum in der hier transkribierten schriftlichen Quelle: 1792
C:Urheber unbekannt
C:Datum in der hier transkribierten schriftlichen Quelle: 1792
L:1/8
M:3/4
K:F
V:1 treble 
V:1
 D | G2 A | B2 c | d2 e | d2 c | BA G | AG ^F | GD B, | G,3 :: d/c/ | BB/A/B/G/ | ^FD d/c/ | %12
 BB/A/B/G/ | ^FD d/c/ | BA d/c/ | BA d/c/ | A2 G!D.C.! || %17

